rospo-dark/16x16/actions/list-remove-all.svg

<svg height="16" viewBox="0 0 16 16" width="16" xmlns="http://www.w3.org/2000/svg"><path d="m3 3v2h10v-2zm0 4v2h6.6875c.77002-.61639 1.7494-1 2.8125-1 .17178 0 .33323.0438.5.0625v-1.0625zm0 4v2h5.0625c-.0187-.16677-.0625-.32822-.0625-.5 0-.53043.11271-1.0274.28125-1.5z" fill="#d3dae3"/><path d="m12.5 9c-1.933 0-3.5 1.567-3.5 3.5s1.567 3.5 3.5 3.5 3.5-1.567 3.5-3.5-1.567-3.5-3.5-3.5zm-2.5 3h2.5 2.5v1h-5z" fill="#5294e2"/></svg>

<?xml version="1.0" encoding="UTF-8" standalone="no"?>
<svg xmlns="http://www.w3.org/2000/svg" width="22" height="22" viewBox="0 0 22 22">
 <defs id="defs10">
  <style type="text/css" id="current-color-scheme">
   .ColorScheme-Text { color:#d3dae3; } .ColorScheme-Highlight { color:#5294e2; }
  </style>
 </defs>
 <path style="fill:currentColor;opacity:1" class="ColorScheme-Text" transform="translate(3 3)" d="M 3 3 L 3 5 L 13 5 L 13 3 L 3 3 z M 3 7 L 3 9 L 9.6875 9 C 10.45752 8.38361 11.4369 8 12.5 8 C 12.67178 8 12.83323 8.0438 13 8.0625 L 13 7 L 3 7 z M 3 11 L 3 13 L 8.0625 13 C 8.0438 12.83323 8 12.67178 8 12.5 C 8 11.96957 8.11271 11.4726 8.28125 11 L 3 11 z"/>
 <path style="fill:currentColor" class="ColorScheme-Highlight" transform="translate(3 3)" d="M 12.5 9 C 10.567 9 9 10.567 9 12.5 C 9 14.433 10.567 16 12.5 16 C 14.433 16 16 14.433 16 12.5 C 16 10.567 14.433 9 12.5 9 z M 10 12 L 12.5 12 L 15 12 L 15 13 L 10 13 L 10 12 z"/>
</svg>
